X:62
T:Gamle skor
R:sl\"angpolska
H:jfr #32, #120. \"Aven i Gm
A:Gotland
Z:id:hn-sp-62
M:3/4
L:1/16
K:Dm =b
A3^c d2c2 d2e2 | e2f2 d2d2 =c4 |
w:H\"a'_ dan-sa ja me m\"ain-e gamb-le sko!
w:Ing-ge got-lands-sor-kar j\"a de till at tro!
e2ed =c2cB A2AB | cBA^G G2A2 A4 :|
w:Hof-fal-li ral-la-li la-la-li ral_la-di ral-lal-la!
|: f3e f2g2 a2a2 | g2ge =c2e2 g4 |
w:Sum-li j\"a f\"o st\"au-re, sum_li j\"a f\"o sma,
f3e f2g2 a2a2 | gage =c2e2 g4 | f4 d2d2 =c4 |
w:sum-li j\"a f\"o gamb-le {\aa}r_kar_ in-te ga. Haj, fal-li-ra!
e2ed =c2cB A2AB | cBA^G G2A2 A4 :|
w:Hof-fal-li ral-la-li la-la-li ral_la-di ral-lal-la!

